X:144
T:Maid of Chatham - Fone
%%VWML:SBG-1-2-830-0
F:http://www.vwml.org/record/SBG/1/2/830
Z:Original Sibelius transcriptions by M. & S. Graebe
M:6/8
I:linebreak $
K:D
V:1 treble nm="P1"
V:1
 d2 | A2 A B2 c | d3 d2 d | A2 ^G ABc | (d3 d) cd | e2 d dcd | e2 c AGF |$ D2 D B2 A | (A3 A) G E | %9
 A2 D E2 C | D2 E FED | D2 D F2 G | A8 | %13

